/* XPM */
/* This file can be converted to EPS by the GROMACS program xpm2ps */
/* title:   "Backbone RMSD matrix" */
/* legend:  "RMSD (nm)" */
/* x-label: "Time (ps)" */
/* y-label: "Time (ps)" */
/* type:    "Continuous" */
static char *gromacs_xpm[] = {
"6 6   80 1",
"A  c #FFFFFF " /* "0" */,
"B  c #FCFCFC " /* "0.000787" */,
"C  c #F9F9F9 " /* "0.00157" */,
"D  c #F5F5F5 " /* "0.00236" */,
"E  c #F2F2F2 " /* "0.00315" */,
"F  c #EFEFEF " /* "0.00394" */,
"G  c #ECECEC " /* "0.00472" */,
"H  c #E8E8E8 " /* "0.00551" */,
"I  c #E5E5E5 " /* "0.0063" */,
"J  c #E2E2E2 " /* "0.00709" */,
"K  c #DFDFDF " /* "0.00787" */,
"L  c #DBDBDB " /* "0.00866" */,
"M  c #D8D8D8 " /* "0.00945" */,
"N  c #D5D5D5 " /* "0.0102" */,
"O  c #D2D2D2 " /* "0.011" */,
"P  c #CFCFCF " /* "0.0118" */,
"Q  c #CBCBCB " /* "0.0126" */,
"R  c #C8C8C8 " /* "0.0134" */,
"S  c #C5C5C5 " /* "0.0142" */,
"T  c #C2C2C2 " /* "0.015" */,
"U  c #BEBEBE " /* "0.0157" */,
"V  c #BBBBBB " /* "0.0165" */,
"W  c #B8B8B8 " /* "0.0173" */,
"X  c #B5B5B5 " /* "0.0181" */,
"Y  c #B2B2B2 " /* "0.0189" */,
"Z  c #AEAEAE " /* "0.0197" */,
"a  c #ABABAB " /* "0.0205" */,
"b  c #A8A8A8 " /* "0.0213" */,
"c  c #A5A5A5 " /* "0.022" */,
"d  c #A1A1A1 " /* "0.0228" */,
"e  c #9E9E9E " /* "0.0236" */,
"f  c #9B9B9B " /* "0.0244" */,
"g  c #989898 " /* "0.0252" */,
"h  c #949494 " /* "0.026" */,
"i  c #919191 " /* "0.0268" */,
"j  c #8E8E8E " /* "0.0276" */,
"k  c #8B8B8B " /* "0.0283" */,
"l  c #888888 " /* "0.0291" */,
"m  c #848484 " /* "0.0299" */,
"n  c #818181 " /* "0.0307" */,
"o  c #7E7E7E " /* "0.0315" */,
"p  c #7B7B7B " /* "0.0323" */,
"q  c #777777 " /* "0.0331" */,
"r  c #747474 " /* "0.0339" */,
"s  c #717171 " /* "0.0346" */,
"t  c #6E6E6E " /* "0.0354" */,
"u  c #6B6B6B " /* "0.0362" */,
"v  c #676767 " /* "0.037" */,
"w  c #646464 " /* "0.0378" */,
"x  c #616161 " /* "0.0386" */,
"y  c #5E5E5E " /* "0.0394" */,
"z  c #5A5A5A " /* "0.0402" */,
"0  c #575757 " /* "0.0409" */,
"1  c #545454 " /* "0.0417" */,
"2  c #515151 " /* "0.0425" */,
"3  c #4D4D4D " /* "0.0433" */,
"4  c #4A4A4A " /* "0.0441" */,
"5  c #474747 " /* "0.0449" */,
"6  c #444444 " /* "0.0457" */,
"7  c #414141 " /* "0.0465" */,
"8  c #3D3D3D " /* "0.0472" */,
"9  c #3A3A3A " /* "0.048" */,
"!  c #373737 " /* "0.0488" */,
"@  c #343434 " /* "0.0496" */,
"#  c #303030 " /* "0.0504" */,
"$  c #2D2D2D " /* "0.0512" */,
"%  c #2A2A2A " /* "0.052" */,
"^  c #272727 " /* "0.0528" */,
"&  c #242424 " /* "0.0535" */,
"*  c #202020 " /* "0.0543" */,
"(  c #1D1D1D " /* "0.0551" */,
")  c #1A1A1A " /* "0.0559" */,
"-  c #171717 " /* "0.0567" */,
"_  c #131313 " /* "0.0575" */,
"=  c #101010 " /* "0.0583" */,
"+  c #0D0D0D " /* "0.0591" */,
"{  c #0A0A0A " /* "0.0598" */,
"}  c #060606 " /* "0.0606" */,
"|  c #030303 " /* "0.0614" */,
";  c #000000 " /* "0.0622" */,
/* x-axis:  0 2 4 6 8 10 */
/* y-axis:  0 2 4 6 8 10 */
";^$@(A",
";|_%A;",
"-&5A;;",
"}&A;;;",
"%A;;;;",
"A;;;;;"
